X:1
T:Darling Nelly Gray
M:4/4
L:1/8
K:C
 EF| G2 G3/2- A/2 GE DC| FG AB c2 BA| G2 GG AG EC| D4 z2|E-F| GG GA GE DC|\
 FG AB c2B-A| G2- EG GF DB,| C4 z2| DE| F2 FF F2 G3/2 F/2| FE ED E2 EF|\
 GG GG AG EC| D4 z2| EF| GG GA GE DC| FG AB c2 BA| G2 E3/2 G/2 GF DB,|\
 C4 z2||
